<?xml version="1.0" encoding="UTF-8"?>
<map version="1.10" orientation="orthogonal" renderorder="right-down" width="4" height="3" tilewidth="8" tileheight="16" infinite="0">
 <tileset firstgid="1" name="demo_atlas" tilewidth="8" tileheight="16" tilecount="4" columns="4">
  <image source="demo_atlas.png" width="32" height="16"/>
  <tile id="2">
   <properties>
    <property name="solid" type="bool" value="true"/>
   </properties>
  </tile>
 </tileset>
 <layer id="1" name="ground" width="4" height="3" visible="1">
  <data encoding="csv">
3,3,3,3,
3,1,1,3,
3,3,3,3
</data>
 </layer>
 <layer id="2" name="collision" width="4" height="3" visible="0">
  <data encoding="csv">
1,1,1,1,
1,0,0,1,
1,1,1,1
</data>
 </layer>
 <objectgroup id="3" name="objects">
  <object id="1" name="spawn" type="player_spawn" x="12" y="24">
   <point/>
   <properties>
    <property name="tag" value="start"/>
   </properties>
  </object>
  <object id="2" name="door" type="portal" x="8" y="16" width="8" height="16">
   <properties>
    <property name="target" value="house_interior"/>
   </properties>
  </object>
 </objectgroup>
</map>
